review/main/icons/illustrative/covid_19/db_ic_il_distance.svg

<svg id="icon" height="64" viewBox="0 0 64 64" width="64" xmlns="http://www.w3.org/2000/svg"><g fill="none" fill-rule="evenodd" transform="translate(8 9)"><path d="m11.5 11a3.5 3.5 0 0 1 3.495 3.308l.005.192v2.5a1 1 0 0 1 -1.993.117l-.007-.117v-2.5a1.5 1.5 0 0 0 -1.356-1.493l-.144-.007h-8a1.5 1.5 0 0 0 -1.493 1.356l-.007.144v14a1.5 1.5 0 0 0 1.356 1.493l.144.007h1.5a1 1 0 0 1 1 1v15a1 1 0 0 1 -1.993.117l-.007-.117-.001-14h-.499a3.5 3.5 0 0 1 -3.495-3.308l-.005-.192v-14a3.5 3.5 0 0 1 3.308-3.495l.192-.005zm-.5 19a1 1 0 0 1 .993.883l.007.117v15a1 1 0 0 1 -1.993.117l-.007-.117v-15a1 1 0 0 1 1-1zm33.5-19a3.5 3.5 0 0 1 3.495 3.308l.005.192v14a3.5 3.5 0 0 1 -3.308 3.495l-.192.005h-.5v14a1 1 0 0 1 -1.993.117l-.007-.117-.001-14.824a1 1 0 0 1 .868-1.17l.117-.006h1.516a1.5 1.5 0 0 0 1.493-1.356l.007-.144v-14a1.5 1.5 0 0 0 -1.356-1.493l-.144-.007h-8a1.5 1.5 0 0 0 -1.493 1.356l-.007.144v2.5a1 1 0 0 1 -1.993.117l-.007-.117v-2.5a3.5 3.5 0 0 1 3.308-3.495l.192-.005zm-7.5 19a1 1 0 0 1 .993.883l.007.117v15a1 1 0 0 1 -1.993.117l-.007-.117v-15a1 1 0 0 1 1-1zm-29.5-30a4.5 4.5 0 1 1 0 9 4.5 4.5 0 0 1 0-9zm33 0a4.5 4.5 0 1 1 0 9 4.5 4.5 0 0 1 0-9zm-33 2a2.5 2.5 0 1 0 0 5 2.5 2.5 0 0 0 0-5zm33 0a2.5 2.5 0 1 0 0 5 2.5 2.5 0 0 0 0-5z" fill="var(--db-icon-color, currentColor)" fill-rule="nonzero"/><path d="m17.767 19.34a1 1 0 0 1 -.034 1.322l-.091.086-4.5 3.763a.614.614 0 0 0 -.24.487c0 .16.062.311.19.44l.085.074 4.463 3.72a1 1 0 0 1 -1.179 1.61l-.101-.074-4.43-3.693a2.614 2.614 0 0 1 -1.028-2.075c0-.751.322-1.463.853-1.937l4.603-3.849a1 1 0 0 1 1.409.126zm13.793-.2.101.074 4.433 3.71a2.614 2.614 0 0 1 1.024 2.076c0 .751-.325 1.463-.857 1.936l-4.601 3.832a1 1 0 0 1 -1.372-1.45l.092-.086 4.496-3.746a.614.614 0 0 0 .242-.488.614.614 0 0 0 -.19-.44l-.084-.074-4.466-3.736a1 1 0 0 1 1.182-1.608zm-.56 4.86a1 1 0 0 1 .117 1.993l-.117.007h-14a1 1 0 0 1 -.117-1.993l.117-.007z" fill="var(--db-icon-pulse-color, #EC0016)"/></g></svg>

<svg id="icon" height="64" viewBox="0 0 64 64" width="64" xmlns="http://www.w3.org/2000/svg"><g fill="none" fill-rule="evenodd" transform="translate(8 9)"><path d="M11.5 11a3.5 3.5 0 0 1 3.495 3.308L15 14.5V17a1 1 0 0 1-1.993.117L13 17v-2.5a1.5 1.5 0 0 0-1.356-1.493L11.5 13h-8a1.5 1.5 0 0 0-1.493 1.356L2 14.5v14a1.5 1.5 0 0 0 1.356 1.493L3.5 30H5a1 1 0 0 1 1 1v15a1 1 0 0 1-1.993.117L4 46l-.001-14H3.5a3.5 3.5 0 0 1-3.495-3.308L0 28.5v-14a3.5 3.5 0 0 1 3.308-3.495L3.5 11h8ZM11 30a1 1 0 0 1 .993.883L12 31v15a1 1 0 0 1-1.993.117L10 46V31a1 1 0 0 1 1-1Zm33.5-19a3.5 3.5 0 0 1 3.495 3.308L48 14.5v14a3.5 3.5 0 0 1-3.308 3.495L44.5 32H44v14a1 1 0 0 1-1.993.117L42 46l-.001-14.824a1 1 0 0 1 .868-1.17l.117-.006H44.5a1.5 1.5 0 0 0 1.493-1.356L46 28.5v-14a1.5 1.5 0 0 0-1.356-1.493L44.5 13h-8a1.5 1.5 0 0 0-1.493 1.356L35 14.5V17a1 1 0 0 1-1.993.117L33 17v-2.5a3.5 3.5 0 0 1 3.308-3.495L36.5 11h8ZM37 30a1 1 0 0 1 .993.883L38 31v15a1 1 0 0 1-1.993.117L36 46V31a1 1 0 0 1 1-1ZM7.5 0a4.5 4.5 0 1 1 0 9 4.5 4.5 0 0 1 0-9Zm33 0a4.5 4.5 0 1 1 0 9 4.5 4.5 0 0 1 0-9Zm-33 2a2.5 2.5 0 1 0 0 5 2.5 2.5 0 0 0 0-5Zm33 0a2.5 2.5 0 1 0 0 5 2.5 2.5 0 0 0 0-5Z" fill="var(--db-icon-color, currentColor)" fill-rule="nonzero"/><path d="M17.767 19.34a1 1 0 0 1-.034 1.322l-.091.086-4.5 3.763a.614.614 0 0 0-.24.487c0 .16.062.311.19.44l.085.074 4.463 3.72a1 1 0 0 1-1.179 1.61l-.101-.074-4.43-3.693A2.614 2.614 0 0 1 10.902 25c0-.751.322-1.463.853-1.937l4.603-3.849a1 1 0 0 1 1.409.126Zm13.793-.2.101.074 4.433 3.71A2.614 2.614 0 0 1 37.118 25c0 .751-.325 1.463-.857 1.936l-4.601 3.832a1 1 0 0 1-1.372-1.45l.092-.086 4.496-3.746a.614.614 0 0 0 .242-.488.614.614 0 0 0-.19-.44l-.084-.074-4.466-3.736a1 1 0 0 1 1.182-1.608ZM31 24a1 1 0 0 1 .117 1.993L31 26H17a1 1 0 0 1-.117-1.993L17 24h14Z" fill="var(--db-icon-pulse-color, #EC0016)"/></g></g></svg>
